resources/svg/store-3-fill.svg

<svg xmlns="http://www.w3.org/2000/svg" viewBox="0 0 24 24" fill="currentColor">
    <g>
        <path fill="none" d="M0 0h24v24H0z"/>
        <path d="M21 13v7a1 1 0 0 1-1 1H4a1 1 0 0 1-1-1v-7H2v-2l1-5h18l1 5v2h-1zM5 13v6h14v-6H5zm1 1h8v3H6v-3zM3 3h18v2H3V3z"/>
    </g>
</svg>

<svg fill="currentColor" viewBox="0 0 24 24" xmlns="http://www.w3.org/2000/svg"><path d="M21 13V20C21 20.5523 20.5523 21 20 21H4C3.44772 21 3 20.5523 3 20V13H2V11L3 6H21L22 11V13H21ZM5 13V19H19V13H5ZM6 14H14V17H6V14ZM3 3H21V5H3V3Z"/></svg>
